18x18/actions/spray-mode-clone.svg

<svg xmlns="http://www.w3.org/2000/svg" width="18" height="18"><defs><style id="current-color-scheme" type="text/css"></style></defs><path style="fill:currentColor;color:#444" d="M3 8h7v5H3zm1-7v4h9v5h2V1zM1 6v9h11V6zm1 1h9v7H2z" transform="translate(1 1)"/></svg>

<svg xmlns="http://www.w3.org/2000/svg" width="18" height="18" version="1.1">
 <defs>
  <style id="current-color-scheme" type="text/css">
   .ColorScheme-Text { color:#444444; } .ColorScheme-Highlight { color:#4285f4; } .ColorScheme-NeutralText { color:#ff9800; } .ColorScheme-PositiveText { color:#4caf50; } .ColorScheme-NegativeText { color:#f44336; }
  </style>
 </defs>
 <g transform="translate(1,1)">
  <path style="fill:currentColor" class="ColorScheme-Text" d="M 3,8 H 10 V 13 H 3 Z M 4,1 V 5 H 13 V 10 H 15 V 1 Z M 1,6 V 15 H 12 V 6 Z M 2,7 H 11 V 14 H 2 Z"/>
 </g>
</svg>
